src/icons/svgs/16/triangle-exclamation.svg

<svg width="16" height="16" viewBox="0 0 16 16" fill="none" xmlns="http://www.w3.org/2000/svg">
<path d="M14.8437 12.3125L9.01106 2.56252C8.56452 1.81252 7.43764 1.81252 6.98809 2.56252L1.1582 12.3125C0.709472 13.0598 1.26837 14 2.16777 14L13.833 14C14.7288 14 15.2894 13.0625 14.8437 12.3125ZM7.34303 5.64287C7.34303 5.28796 7.63698 5.00002 7.9993 5.00002C8.36162 5.00002 8.65558 5.2893 8.65558 5.64287L8.65558 9.07144C8.65558 9.42635 8.36162 9.7143 8.02391 9.7143C7.68621 9.7143 7.34303 9.42769 7.34303 9.07144L7.34303 5.64287ZM7.9993 12.2857C7.5246 12.2857 7.13959 11.9086 7.13959 11.4436C7.13959 10.9786 7.52433 10.6014 7.9993 10.6014C8.47428 10.6014 8.85902 10.9786 8.85902 11.4436C8.85793 11.9081 8.4751 12.2857 7.9993 12.2857Z" fill="black"/>
</svg>

<svg width="16" height="16" viewBox="0 0 16 16" xmlns="http://www.w3.org/2000/svg">
    <path d="M14.844 12.313 9.01 2.563c-.446-.75-1.573-.75-2.023 0l-5.83 9.75C.71 13.06 1.268 14 2.168 14h11.665c.896 0 1.456-.938 1.01-1.688zm-7.501-6.67A.65.65 0 0 1 7.999 5a.65.65 0 0 1 .657.643V9.07a.645.645 0 0 1-.632.643c-.338 0-.681-.286-.681-.643V5.643zm.656 6.643a.851.851 0 0 1-.86-.842c0-.465.385-.843.86-.843s.86.378.86.843a.851.851 0 0 1-.86.842z"/>
</svg>
